X:966
T:Carlisle Races
O:england
M:6/8
A:North-West
R:Jig
K:G
D|\
G2B d2e| dBd g2d| c2e dBG| FAA A2D|\
G2B d2e| dBd g2B| c2e DEF| FGG G2::\
d|\
gab agf| efg dcB| cde dBG| FAA A2d|\
gab agf| efg dcB| c2e DEF| FGG G2:|


